img/mountains.svg

<svg width="2070" height="407" viewBox="0 0 2070 407" fill="none" xmlns="http://www.w3.org/2000/svg">
<path d="M39 115.5C33 117.1 18.5 122.5 12 125L0 141V407H2069.5V48.5C2064.5 52.5 2053 61.2 2047 64C2041 66.8 2032.83 65.1667 2029.5 64C2025.5 69.6 2008.5 68.3333 2000.5 67C1996.67 72.8333 1985.5 85.6 1971.5 90C1957.5 94.4 1939.67 90.1667 1932.5 87.5C1929.5 90.8333 1921.3 97.8 1912.5 99C1903.7 100.2 1897.17 97.1667 1895 95.5C1893.33 98.6667 1888.9 105.3 1884.5 106.5C1880.1 107.7 1873.33 104.667 1870.5 103C1860.5 114.667 1836.8 138.9 1822 142.5C1803.5 147 1792 133.5 1784.5 132C1777 130.5 1750 129.5 1732.5 127C1715 124.5 1680 132 1666.5 132C1653 132 1646.5 120 1629 114.5C1611.5 109 1570.5 115.5 1564 114.5C1557.5 113.5 1521.5 101 1512 90C1504.4 81.2 1486.17 72.6667 1478 69.5C1471.33 60 1456.7 39.6 1451.5 34C1445 27 1435.5 25 1426.5 22.5C1419.3 20.5 1406.17 6.66667 1400.5 0C1387.17 15.3333 1358.7 46.8 1351.5 50C1344.3 53.2 1336.17 48.6667 1333 46L1270 71C1262.8 85.4 1237 90 1225 90.5L1215 83.5C1205.17 86.3333 1182.1 94 1168.5 102C1151.5 112 1142.5 137.5 1129 149C1118.2 158.2 1096.5 159.833 1087 159.5C1073.33 167 1041.3 182 1022.5 182C1003.7 182 969 169 954 162.5H895.5C883.167 167.833 853.5 178.3 833.5 177.5C808.5 176.5 784.5 167 767 162.5C753 158.9 743.167 149 740 144.5H705.5C696.333 150.333 675.9 162.1 667.5 162.5C659.1 162.9 642.333 154.667 635 150.5C629.833 152.5 617.9 156.3 611.5 155.5C605.1 154.7 585.5 143.833 576.5 138.5C571.333 140.5 558.6 144.5 549 144.5C539.4 144.5 533.667 140.5 532 138.5C527.667 140 517.2 142.6 510 141C502.8 139.4 495.667 131.333 493 127.5C490 129 482.4 132 476 132C468 132 466 124.5 459.5 124C453 123.5 444 128.5 436.5 127.5C430.5 126.7 394.333 107.167 377 97.5C370.5 99.3333 355.9 103 349.5 103C343.1 103 328.833 98.3333 322.5 96H301.5L285 107.5H272.5C268.5 110.3 255.5 110.667 249.5 110.5C247.5 114.1 238 120.667 233.5 123.5H220.5C217 125.5 208.7 129.5 203.5 129.5C198.3 129.5 187.333 126.167 182.5 124.5C177.667 126.667 167.2 131.2 164 132C160 133 132 132 126 131C121.2 130.2 104.667 122 97 118C92.6667 119.333 83.3 122 80.5 122C77 122 68.5 119.5 63 115.5C57.5 111.5 46.5 113.5 39 115.5Z" fill="#E3C485"/>
</svg>

<?xml version="1.0" encoding="UTF-8"?>
<svg id="Layer_1" data-name="Layer 1" xmlns="http://www.w3.org/2000/svg" version="1.1" viewBox="0 0 2070 573.9">
  <defs>
    <style>
      .cls-1 {
        fill: #e3c485;
        stroke-width: 0px;
      }
    </style>
  </defs>
  <path class="cls-1" d="M39,115.5c-6,1.6-20.5,7-27,9.5L0,141v432h2069.5V48.5c-5,4-16.5,12.7-22.5,15.5-6,2.8-14.2,1.2-17.5,0-4,5.6-21,4.3-29,3-3.8,5.8-15,18.6-29,23s-31.8.2-39-2.5c-3,3.3-11.2,10.3-20,11.5s-15.3-1.8-17.5-3.5c-1.7,3.2-6.1,9.8-10.5,11s-11.2-1.8-14-3.5c-10,11.7-33.7,35.9-48.5,39.5-18.5,4.5-30-9-37.5-10.5s-34.5-2.5-52-5-52.5,5-66,5-20-12-37.5-17.5-58.5,1-65,0-42.5-13.5-52-24.5c-7.6-8.8-25.8-17.3-34-20.5-6.7-9.5-21.3-29.9-26.5-35.5-6.5-7-16-9-25-11.5-7.2-2-20.3-15.8-26-22.5-13.3,15.3-41.8,46.8-49,50s-15.3-1.3-18.5-4l-63,25c-7.2,14.4-33,19-45,19.5l-10-7c-9.8,2.8-32.9,10.5-46.5,18.5-17,10-26,35.5-39.5,47-10.8,9.2-32.5,10.8-42,10.5-13.7,7.5-45.7,22.5-64.5,22.5s-53.5-13-68.5-19.5h-58.5c-12.3,5.3-42,15.8-62,15-25-1-49-10.5-66.5-15-14-3.6-23.8-13.5-27-18h-34.5c-9.2,5.8-29.6,17.6-38,18s-25.2-7.8-32.5-12c-5.2,2-17.1,5.8-23.5,5s-26-11.7-35-17c-5.2,2-17.9,6-27.5,6s-15.3-4-17-6c-4.3,1.5-14.8,4.1-22,2.5s-14.3-9.7-17-13.5c-3,1.5-10.6,4.5-17,4.5s-10-7.5-16.5-8-15.5,4.5-23,3.5c-6-.8-42.2-20.3-59.5-30-6.5,1.8-21.1,5.5-27.5,5.5s-20.7-4.7-27-7h-21l-16.5,11.5h-12.5c-4,2.8-17,3.2-23,3-2,3.6-11.5,10.2-16,13h-13c-3.5,2-11.8,6-17,6s-16.2-3.3-21-5c-4.8,2.2-15.3,6.7-18.5,7.5-4,1-32,0-38-1-4.8-.8-21.3-9-29-13-4.3,1.3-13.7,4-16.5,4s-12-2.5-17.5-6.5-16.5-2-24,0Z"/>
</svg>
